X: 19358
T: Jack Sweeney's
R: polka
M: 2/4
K: Dmajor
|:DE FG|A2 AB|=c/B/A DF|G2 G>F|
EF GA|c2 cB|AF/A/ F/B/A/F/|1 D2 D>E:|2 D2 D>G||
|:AA A/G/A|BB B/A/B|c>B c/B/A|F3 F/G/|
AA A/G/A|BB B/A/B|ce Bc|1 d2 d>G:|2 d2 d>E||

